X:60
T:score150
L:1/16
Q:1/4=96
M:4/4
I:linebreak $
K:Eb
!p! (g8- g2a2c2f2 | d4 fe(3def e4) z4 | (b4 g2e2)!<(! (d'2>c'2 bag!<)!f) |$ %3
 (f4-!>(! (6:4:6fedecf!>)! B4) z4 |!p! (g8- g2a2c2f2) | (e6 d2!<(! c2)(ed feg!<)!f) |$ %6
 (f4 e2) ze!>(! (e2d2c2!>)!d2) | (f8 e4) z4 |] %8
